X:1
T:Title
L:1/8
M:4/4
K:F
V:1 treble nm="Grand Piano"
V:1
 z4 z[Q:1/4=100] CAG | F3 C F2 G2 | E4- ECBA | G3 C G2 A2 | F4- FCAG | F3 F G2 A2 | B4- BdBG | %7
 Ac A2- AAGF | G4- GCDE | F3 F G2 F2 | E4- ECEF | G3 G A2 G2 | F4- FCFG | A3 F G2 A2 | B4- BFED | %15
 C3 B A2 G2 | F4- FFAc | d4- dFBd | c4- cAAB | c3 d c2 A2 | G4- GdcB | A3 F G2 A2 | B4- BFED | %23
 C3 B A2 G2 | F6 z2 |] %25

